icons/refresh-alt.svg

<svg xmlns="http://www.w3.org/2000/svg" width="24" height="24" viewBox="0 0 24 24">
  <path d="M20.0000831,11.0000831 C20.5523679,11.0000831 21.0000831,11.4477984 21.0000831,12.0000831 C21.0000831,16.9706459 16.9706459,21.0000831 12.0000831,21.0000831 C9.75428388,21.0000831 7.62675213,20.1708117 6.00015933,18.7572424 L6,21 C6,21.5522847 5.55228475,22 5,22 C4.44771525,22 4,21.5522847 4,21 L4,16 L4.00005228,15.9845687 C4.00043284,15.9614524 4.00161465,15.9383884 4.00358637,15.9154193 L4,16 C4,15.9532199 4.00321217,15.90719 4.00942798,15.8621189 C4.01145652,15.8488445 4.01361286,15.8354152 4.01603973,15.8220392 C4.02688589,15.7602612 4.04365022,15.7004721 4.0655266,15.6432094 C4.06895612,15.6351729 4.07228991,15.6267617 4.07573796,15.6183944 C4.08371118,15.5982936 4.09238774,15.5790923 4.10164115,15.5602253 L4.1112728,15.5415406 C4.11866719,15.5271746 4.12641694,15.512973 4.13451815,15.4989503 C4.14397923,15.482423 4.15398692,15.4662579 4.16443349,15.4504076 C4.17549693,15.4335761 4.18707512,15.4170556 4.19917794,15.4008633 C4.20834098,15.3887713 4.21768442,15.3768742 4.22728732,15.3651987 C4.23689321,15.3532977 4.24709727,15.341445 4.25760464,15.3298109 C4.27671077,15.3088846 4.29641468,15.2888375 4.31692772,15.2696445 C4.31922679,15.2673608 4.32146333,15.2652927 4.32371083,15.2632336 C4.33998706,15.248069 4.36406886,15.2275729 4.38909257,15.2082368 C4.40078471,15.1993018 4.41267913,15.1905572 4.42481389,15.1820444 C4.44569647,15.1671684 4.4671149,15.1532722 4.48907688,15.1401936 C4.49245195,15.1384987 4.49591975,15.1364654 4.49940427,15.13445 L4.51871532,15.1232231 C4.53236101,15.1157166 4.54620083,15.1085195 4.56022533,15.1016412 L4.58480678,15.0899989 L4.58480678,15.0899989 L4.49940427,15.13445 C4.54335437,15.1090294 4.58843394,15.0873267 4.6342787,15.0692446 C4.65185985,15.0620706 4.6699451,15.0555512 4.68826359,15.0495467 C4.70529802,15.0441156 4.72264804,15.0389235 4.74006568,15.0342226 C4.76029458,15.0286891 4.78062422,15.0239115 4.80118228,15.0197644 C4.81533714,15.0169152 4.829344,15.0143879 4.84337034,15.012166 C4.85637692,15.0101441 4.86983664,15.0083006 4.88337887,15.0067277 L4.91403791,15.0035538 C4.93510063,15.0017493 4.95617136,15.0006201 4.97721825,15.0001577 C4.98451079,15.0000883 4.99224509,15 5,15 L10,15 C10.5522847,15 11,15.4477153 11,16 C11,16.5522847 10.5522847,17 10,17 L7.04275746,17.0010394 C8.340165,18.252664 10.1176664,19.0000831 12.0000831,19.0000831 C15.8660764,19.0000831 19.0000831,15.8660764 19.0000831,12.0000831 C19.0000831,11.4477984 19.4477984,11.0000831 20.0000831,11.0000831 Z M19,2 C19.5522847,2 20,2.44771525 20,3 L20,8 L20,8 L19.9994872,8.03361785 C19.9990918,8.04502412 19.9985014,8.05641447 19.9977174,8.0677838 L20,8 C20,8.04712923 19.9967397,8.09349698 19.9904324,8.13889001 C19.9875492,8.15808192 19.9843096,8.17706283 19.98053,8.19592792 C19.9771634,8.21431384 19.9729889,8.23259414 19.9683213,8.25067622 C19.9640186,8.26591139 19.9596259,8.28135102 19.9548657,8.29667885 C19.948581,8.31818119 19.9412721,8.33918485 19.9332961,8.35985692 C19.9282746,8.37190355 19.9234853,8.38366253 19.9184721,8.39533208 C19.9096472,8.41661891 19.8997274,8.43758623 19.889116,8.45813838 C19.8867643,8.46224568 19.8845517,8.46647516 19.8823081,8.47068987 L19.8706686,8.49222569 C19.8587816,8.51320676 19.8461581,8.53371567 19.8328332,8.5537173 C19.8222285,8.56967599 19.8110419,8.5855176 19.799372,8.60105402 C19.7898355,8.61359269 19.7801338,8.62586417 19.7701554,8.63789797 C19.7587095,8.65191553 19.7466474,8.66569862 19.7341724,8.67917703 L19.734001,8.67915526 L19.7071068,8.70710678 C19.7017472,8.71246635 19.6963271,8.71776537 19.6908475,8.72300272 C19.6791967,8.73428413 19.6668552,8.74549217 19.6541901,8.7564222 C19.6367148,8.77148141 19.6186611,8.7860525 19.6001066,8.79999313 C19.5661085,8.82533728 19.5302312,8.84882298 19.4924268,8.87021688 L19.5831901,8.81242843 L19.5831901,8.81242843 L19.5360882,8.84431203 C19.5271434,8.85000333 19.518102,8.85555639 19.5089671,8.86096821 L19.4924268,8.87021688 C19.4855603,8.87410271 19.4786673,8.87789851 19.4717493,8.88160466 C19.4504075,8.8934109 19.4280576,8.90435697 19.4052588,8.91447548 C19.3990945,8.91689251 19.3933624,8.91937477 19.3876174,8.92179927 L19.3761283,8.92685283 L19.3761283,8.92685283 L19.3372588,8.94170137 C19.3275026,8.94519584 19.3176763,8.94854301 19.3077825,8.95174018 C19.2986638,8.95451149 19.2892758,8.95740847 19.2798663,8.96016052 L19.2557412,8.96699964 C19.2369769,8.97194902 19.2179967,8.9763667 19.1988177,8.98023562 C19.1804831,8.98392453 19.1624249,8.98706504 19.1443402,8.98969954 C19.1257322,8.99236155 19.106351,8.99460397 19.0868091,8.99628437 C19.0688579,8.9979242 19.0511597,8.99897472 19.0334756,8.99955355 L19.0335352,8.99944828 L19,9 L19,9 L14,9 C13.4477153,9 13,8.55228475 13,8 C13,7.44771525 13.4477153,7 14,7 L16.9818012,6.99987843 C15.6966485,5.74039545 13.9204786,4.99991251 11.9999125,4.99991251 C8.13391926,4.99991251 4.99991251,8.13391926 4.99991251,11.9999125 C4.99991251,12.5521973 4.55219726,12.9999125 3.99991251,12.9999125 C3.44762776,12.9999125 2.99991251,12.5521973 2.99991251,11.9999125 C2.99991251,7.02934976 7.02934976,2.99991251 11.9999125,2.99991251 C14.2664589,2.99991251 16.385532,3.81304185 18.0005042,5.21925055 L18,3 C18,2.44771525 18.4477153,2 19,2 Z"/>
</svg>

<svg xmlns="http://www.w3.org/2000/svg" viewBox="0 0 24 24">
  <path d="M20 11a1 1 0 0 1 1 1 9 9 0 0 1-9 9 9.16 9.16 0 0 1-6-2.24V21a1 1 0 0 1-2 0v-5.02a1 1 0 0 1 0-.06V16a1 1 0 0 1 .07-.36v-.02a.8.8 0 0 1 .03-.06l.01-.02a1 1 0 0 1 .38-.4l.03-.02a1 1 0 0 1 .04-.02l.02-.01-.08.04a1 1 0 0 1 .38-.12h.03a1 1 0 0 1 .07-.01H10a1 1 0 0 1 0 2H7.04c1.3 1.25 3.08 2 4.96 2a7 7 0 0 0 7-7 1 1 0 0 1 1-1zm-1-9a1 1 0 0 1 1 1v5.03a1 1 0 0 1 0 .04V8a1 1 0 0 1-.07.36l-.01.04-.03.06v.01l-.02.02a1 1 0 0 1-.14.19l-.02.03a1 1 0 0 1-.22.16l.1-.06-.05.03a1 1 0 0 1-.03.02l-.02.01a1.02 1.02 0 0 1-.08.04l-.02.01h-.01l-.04.02a1 1 0 0 1-.03.01l-.03.01h-.02a1 1 0 0 1-.23.04H14a1 1 0 0 1 0-2h2.98A7.1 7.1 0 0 0 12 5a7 7 0 0 0-7 7 1 1 0 1 1-2 0 9 9 0 0 1 9-9c2.27 0 4.39.81 6 2.22V3a1 1 0 0 1 1-1z"/>
</svg>
